;FLAVOR:Marlin
;TIME:5497
;Filament used: 2.59446m
;Layer height: 0.2
;MINX:78.208
;MINY:78.755
;MINZ:0.2
;MAXX:131.846
;MAXY:151.282
;MAXZ:35
;Generated with Cura_SteamEngine 4.12.1
M140 S60
M105
M190 S60
M104 S200
M105
M109 S200
M82 ;absolute extrusion mode
; Ender 3 Custom Start G-code
G92 E0 ; Reset Extruder
G28 ; Home all axes
G1 Z2.0 F3000 ; Move Z Axis up little to prevent scratching of Heat Bed
G1 X0.1 Y20 Z0.3 F5000.0 ; Move to start position
G1 X0.1 Y200.0 Z0.3 F1500.0 E15 ; Draw the first line
G1 X0.4 Y200.0 Z0.3 F5000.0 ; Move to side a little
G1 X0.4 Y20 Z0.3 F1500.0 E30 ; Draw the second line
G92 E0 ; Reset Extruder
G1 Z2.0 F3000 ; Move Z Axis up little to prevent scratching of Heat Bed
G1 X5 Y20 Z0.3 F5000.0 ; Move over to prevent blob squish
G92 E0
G92 E0
G1 F2700 E-5
;LAYER_COUNT:175
;LAYER:0
M107
G0 F6000 X83.204 Y82.057 Z0.2
;TYPE:SKIRT
G1 F2700 E0
G1 F1200 X83.312 Y81.95 E0.00506
G1 X84.006 Y81.319 E0.03625
G1 X84.751 Y80.749 E0.06745
G1 X85.542 Y80.245 E0.09865
G1 X86.373 Y79.81 E0.12985
G1 X87.238 Y79.447 E0.16105
G1 X88.13 Y79.16 E0.19221
G1 X89.044 Y78.949 E0.22341
G1 X89.973 Y78.817 E0.25462
G1 X90.908 Y78.765 E0.28577
G1 X91.73 Y78.755 E0.31311
G1 X93.239 Y78.755 E0.3633
G1 X94.095 Y78.766 E0.39177
G1 X95.01 Y78.817 E0.42225
G1 X96.208 Y78.934 E0.46229
G1 X98.709 Y79.147 E0.54577
G1 X101.251 Y79.29 E0.63045
G1 X103.775 Y79.361 E0.71443
G1 X106.299 Y79.361 E0.79838
G1 X108.794 Y79.289 E0.8814
G1 X111.297 Y79.148 E0.96478
G1 X113.81 Y78.933 E1.04867
G1 X114.144 Y78.897 E1.05984
G1 X115.048 Y78.812 E1.09004
G1 X115.655 Y78.772 E1.11028
G1 X116.021 Y78.762 E1.12245
G1 X116.646 Y78.755 E1.14324
G1 X118.397 Y78.756 E1.20148
G1 X119.095 Y78.766 E1.2247
G1 X120.031 Y78.82 E1.25588
G1 X120.959 Y78.952 E1.28706
G1 X121.873 Y79.164 E1.31827
G1 X122.765 Y79.453 E1.34945
G1 X123.63 Y79.816 E1.38065
G1 X124.46 Y80.252 E1.41184
G1 X125.251 Y80.757 E1.44305
G1 X125.995 Y81.328 E1.47424
G1 X126.504 Y81.781 E1.49691
G1 X126.619 Y81.89 E1.50218
G1 X127.272 Y82.564 E1.53339
G1 X127.865 Y83.291 E1.56459
G1 X128.393 Y84.065 E1.59576
G1 X128.854 Y84.882 E1.62696
G1 X129.244 Y85.735 E1.65815
G1 X129.559 Y86.618 E1.68933
G1 X129.798 Y87.525 E1.72053
G1 X129.959 Y88.449 E1.75173
G1 X130.016 Y88.982 E1.76955
G1 X130.05 Y89.446 E1.78503
G1 X130.074 Y89.885 E1.79965
G1 X130.084 Y90.126 E1.80767
G1 X130.156 Y92.324 E1.88082
G1 X130.164 Y92.655 E1.89183
G1 X130.276 Y94.68 E1.95929
G1 X130.342 Y96.06 E2.00524
G1 X130.349 Y96.993 E2.03627
G1 X130.319 Y97.835 E2.06429
G1 X130.263 Y100.472 E2.15202
G1 X130.282 Y102.999 E2.23607
G1 X130.37 Y105.485 E2.31881
G1 X130.533 Y108.036 E2.40383
G1 X130.758 Y110.476 E2.48533
G1 X131.182 Y113.865 E2.59892
G1 X131.331 Y114.9 E2.6337
G1 X131.425 Y115.844 E2.66525
G1 X131.453 Y116.369 E2.68274
G1 X131.529 Y118.499 E2.75363
G1 X131.55 Y119.534 E2.78806
G1 X131.571 Y121.973 E2.86919
G1 X131.57 Y122.874 E2.89915
G1 X131.603 Y125.442 E2.98457
G1 X131.71 Y128.03 E3.07072
G1 X131.737 Y128.475 E3.08555
G1 X131.794 Y129.768 E3.1286
G1 X131.833 Y131.075 E3.17209
G1 X131.846 Y131.805 E3.19637
G1 X131.841 Y132.407 E3.2164
G1 X131.792 Y133.708 E3.2597
G1 X131.767 Y134.497 E3.28595
G1 X131.752 Y134.827 E3.29694
G1 X131.651 Y136.448 E3.35096
G1 X131.576 Y137.998 E3.40257
G1 X131.564 Y138.126 E3.40685
G1 X131.505 Y139.383 E3.4487
G1 X131.421 Y140.317 E3.47989
G1 X131.324 Y140.914 E3.50001
G1 X131.28 Y141.146 E3.50786
G1 X131.211 Y141.482 E3.51927
G1 X130.989 Y142.481 E3.55331
G1 X130.747 Y143.387 E3.5845
G1 X130.428 Y144.269 E3.6157
G1 X130.036 Y145.121 E3.64689
G1 X129.572 Y145.936 E3.67808
G1 X129.04 Y146.709 E3.70929
G1 X128.445 Y147.434 E3.74049
G1 X127.79 Y148.105 E3.77167
G1 X127.08 Y148.718 E3.80287
G1 X126.321 Y149.269 E3.83407
G1 X125.83 Y149.575 E3.85331
G1 X125.638 Y149.688 E3.86072
G1 X124.811 Y150.129 E3.89189
G1 X124.323 Y150.348 E3.90968
G1 X124.216 Y150.393 E3.91354
G1 X123.337 Y150.719 E3.94473
G1 X122.433 Y150.969 E3.97592
G1 X121.523 Y151.14 E4.00672
G1 X121.322 Y151.169 E4.01347
G1 X120.389 Y151.264 E4.04466
G1 X119.751 Y151.282 E4.06589
G1 X119.209 Y151.272 E4.08392
G1 X118.522 Y151.241 E4.1068
G1 X116.946 Y151.151 E4.1593
G1 X115.362 Y151.105 E4.21201
G1 X114.789 Y151.081 E4.23108
G1 X114.462 Y151.063 E4.24197
G1 X113.641 Y151.003 E4.26935
G1 X112.252 Y150.884 E4.31572
G1 X109.727 Y150.739 E4.39984
G1 X107.239 Y150.667 E4.48263
G1 X104.715 Y150.665 E4.56657
G1 X102.192 Y150.735 E4.65052
G1 X99.704 Y150.874 E4.7334
G1 X95.895 Y151.222 E4.86062
G1 X95.102 Y151.266 E4.88703
G1 X94.731 Y151.273 E4.89938
G1 X94.057 Y151.265 E4.92179
G1 X93.522 Y151.241 E4.93961
G1 X91.946 Y151.151 E4.99211
G1 X90.337 Y151.104 E5.04565
G1 X89.748 Y151.078 E5.06526
G1 X88.814 Y150.997 E5.09644
G1 X87.908 Y150.841 E5.12702
G1 X87.686 Y150.793 E5.13457
G1 X86.779 Y150.555 E5.16576
G1 X85.895 Y150.242 E5.19695
G1 X85.041 Y149.854 E5.22815
G1 X84.597 Y149.616 E5.2449
G1 X84.383 Y149.495 E5.25308
G1 X83.587 Y148.999 E5.28427
G1 X82.836 Y148.437 E5.31547
G1 X82.136 Y147.813 E5.34666
G1 X81.491 Y147.132 E5.37786
G1 X80.907 Y146.398 E5.40906
G1 X80.388 Y145.618 E5.44022
G1 X79.936 Y144.795 E5.47145
G1 X79.557 Y143.938 E5.50261
G1 X79.327 Y143.294 E5.52536
G1 X79.23 Y142.993 E5.53588
G1 X79.1 Y142.557 E5.55101
G1 X78.942 Y141.987 E5.57068
G1 X78.73 Y141.074 E5.60186
G1 X78.597 Y140.145 E5.63307
G1 X78.546 Y139.334 E5.6601
G1 X78.499 Y137.521 E5.72042
G1 X78.351 Y133.43 E5.85657
G1 X78.333 Y132.649 E5.88256
G1 X78.33 Y132.332 E5.8931
G1 X78.337 Y131.263 E5.92866
G1 X78.333 Y129.761 E5.97861
G1 X78.252 Y126.676 E6.08126
G1 X78.223 Y126.003 E6.10366
G1 X78.214 Y125.697 E6.11384
G1 X78.208 Y125.305 E6.12688
G1 X78.208 Y124.966 E6.13816
G1 X78.217 Y124.45 E6.15532
G1 X78.238 Y124.019 E6.16968
G1 X78.306 Y121.95 E6.23853
G1 X78.381 Y120.368 E6.2912
G1 X78.471 Y117.711 E6.37963
G1 X78.486 Y116.155 E6.43138
G1 X78.494 Y115.842 E6.4418
G1 X78.501 Y115.658 E6.44792
G1 X78.601 Y114.537 E6.48535
G1 X78.774 Y113.319 E6.52627
G1 X78.861 Y112.759 E6.54512
G1 X79.17 Y110.311 E6.62719
G1 X79.417 Y107.785 E6.7116
G1 X79.59 Y105.272 E6.79538
G1 X79.694 Y102.742 E6.8796
G1 X79.725 Y100.221 E6.96346
G1 X79.68 Y97.527 E7.05307
G1 X79.664 Y97.01 E7.07028
G1 X79.674 Y96.066 E7.10168
G1 X79.753 Y94.625 E7.14968
G1 X79.778 Y94.248 E7.16224
G1 X79.863 Y92.115 E7.23324
G1 X79.919 Y90.082 E7.30089
G1 X79.935 Y89.727 E7.31271
G1 X79.966 Y89.211 E7.3299
G1 X80.062 Y88.278 E7.36109
G1 X80.237 Y87.357 E7.39227
G1 X80.49 Y86.454 E7.42346
G1 X80.819 Y85.576 E7.45465
G1 X81.222 Y84.729 E7.48585
G1 X81.695 Y83.919 E7.51705
G1 X82.236 Y83.153 E7.54824
G1 X82.84 Y82.435 E7.57944
G1 X83.204 Y82.057 E7.5969
G0 F6000 X83.486 Y82.341
G1 F1200 X83.594 Y82.234 E7.60195
G1 X84.275 Y81.615 E7.63256
G1 X85.008 Y81.057 E7.6632
G1 X85.786 Y80.566 E7.6938
G1 X86.604 Y80.143 E7.72443
G1 X87.456 Y79.793 E7.75507
G1 X88.334 Y79.519 E7.78566
G1 X89.234 Y79.321 E7.81631
G1 X90.147 Y79.203 E7.84693
G1 X90.913 Y79.165 E7.87243
G1 X91.73 Y79.155 E7.89961
G1 X93.239 Y79.155 E7.9498
G1 X94.089 Y79.166 E7.97807
G1 X94.971 Y79.216 E8.00746
G1 X96.058 Y79.323 E8.04378
G1 X98.722 Y79.549 E8.13271
G1 X101.216 Y79.69 E8.21579
G1 X103.764 Y79.761 E8.30057
G1 X106.275 Y79.761 E8.38409
G1 X108.827 Y79.688 E8.469
G1 X111.354 Y79.545 E8.55318
G1 X113.853 Y79.331 E8.63661
G1 X114.182 Y79.296 E8.64761
G1 X115.086 Y79.211 E8.67781
G1 X115.671 Y79.172 E8.69731
G1 X116.026 Y79.162 E8.70912
G1 X116.646 Y79.155 E8.72974
G1 X118.391 Y79.156 E8.78778
G1 X119.089 Y79.166 E8.811
G1 X120.008 Y79.219 E8.84162
G1 X120.919 Y79.352 E8.87224
G1 X121.815 Y79.563 E8.90286
G1 X122.689 Y79.851 E8.93346
G1 X123.536 Y80.214 E8.96411
G1 X124.347 Y80.649 E8.99472
G1 X125.117 Y81.153 E9.02533
G1 X125.841 Y81.722 E9.05596
G1 X126.229 Y82.072 E9.07334
G1 X126.344 Y82.181 E9.07861
G1 X126.984 Y82.842 E9.10921
G1 X127.564 Y83.557 E9.13983
G1 X128.08 Y84.32 E9.17047
G1 X128.528 Y85.124 E9.20108
G1 X128.905 Y85.964 E9.2317
G1 X129.207 Y86.834 E9.26233
G1 X129.432 Y87.726 E9.29293
G1 X129.617 Y89.014 E9.33621
G1 X129.631 Y89.186 E9.34195
G1 X129.65 Y89.467 E9.35131
G1 X129.674 Y89.906 E9.36594
G1 X129.684 Y90.139 E9.37369
G1 X129.756 Y92.334 E9.44674
G1 X129.764 Y92.654 E9.45739
G1 X129.877 Y94.699 E9.52551
G1 X129.943 Y96.079 E9.57146
G1 X129.949 Y96.979 E9.60139
G1 X129.92 Y97.787 E9.62828
G1 X129.863 Y100.466 E9.71741
G1 X129.882 Y103.016 E9.80222
G1 X129.97 Y105.488 E9.8845
G1 X130.134 Y108.065 E9.97038
G1 X130.361 Y110.529 E10.05268
G1 X130.786 Y113.922 E10.16641
G1 X130.935 Y114.957 E10.20119
G1 X131.026 Y115.866 E10.23158
G1 X131.053 Y116.383 E10.2488
G1 X131.129 Y118.508 E10.31952
G1 X131.15 Y119.537 E10.35375
G1 X131.171 Y121.973 E10.43478
G1 X131.17 Y122.879 E10.46491
G1 X131.203 Y125.464 E10.55089
G1 X131.309 Y128.03 E10.63631
G1 X131.337 Y128.493 E10.65174
G1 X131.394 Y129.78 E10.69459
G1 X131.433 Y131.082 E10.73791
G1 X131.446 Y131.812 E10.7622
G1 X131.441 Y132.392 E10.78149
G1 X131.393 Y133.693 E10.82479
G1 X131.368 Y134.484 E10.85111
G1 X131.353 Y134.802 E10.8617
G1 X131.253 Y136.402 E10.91502
G1 X131.177 Y137.979 E10.96753
G1 X131.164 Y138.124 E10.97237
G1 X131.105 Y139.364 E11.01366
G1 X131.022 Y140.281 E11.04429
G1 X130.931 Y140.839 E11.06309
G1 X130.887 Y141.071 E11.07094
G1 X130.821 Y141.395 E11.08194
G1 X130.599 Y142.394 E11.11598
G1 X130.36 Y143.284 E11.14663
G1 X130.045 Y144.149 E11.17725
G1 X129.657 Y144.983 E11.20784
G1 X129.197 Y145.781 E11.23848
G1 X128.67 Y146.536 E11.2691
G1 X128.079 Y147.242 E11.29972
G1 X127.429 Y147.894 E11.33035
G1 X126.726 Y148.488 E11.36096
G1 X125.627 Y149.23 E11.40506
G1 X125.435 Y149.343 E11.41247
G1 X124.623 Y149.775 E11.44306
G1 X124.168 Y149.979 E11.45965
G1 X124.061 Y150.024 E11.46351
G1 X123.198 Y150.344 E11.49412
G1 X122.31 Y150.587 E11.52474
G1 X121.466 Y150.744 E11.55329
G1 X121.265 Y150.773 E11.56005
G1 X120.349 Y150.865 E11.59067
G1 X119.751 Y150.882 E11.61057
G1 X119.226 Y150.872 E11.62803
G1 X118.544 Y150.842 E11.65074
G1 X116.979 Y150.753 E11.70287
G1 X115.378 Y150.706 E11.75614
G1 X114.805 Y150.682 E11.77522
G1 X114.49 Y150.664 E11.78571
G1 X113.675 Y150.604 E11.81289
G1 X112.308 Y150.487 E11.85853
G1 X109.762 Y150.341 E11.94335
G1 X107.216 Y150.267 E12.02806
G1 X104.704 Y150.265 E12.11161
G1 X102.159 Y150.335 E12.19629
G1 X99.702 Y150.473 E12.27814
G1 X95.859 Y150.824 E12.40649
G1 X95.094 Y150.866 E12.43197
G1 X94.723 Y150.873 E12.44431
G1 X94.074 Y150.865 E12.4659
G1 X93.544 Y150.842 E12.48355
G1 X91.979 Y150.753 E12.53568
G1 X90.355 Y150.705 E12.58972
G1 X89.766 Y150.679 E12.60933
G1 X88.848 Y150.598 E12.63998
G1 X87.993 Y150.45 E12.66884
G1 X87.771 Y150.402 E12.6764
G1 X86.88 Y150.168 E12.70704
G1 X86.013 Y149.858 E12.73766
G1 X84.794 Y149.268 E12.7827
G1 X84.58 Y149.147 E12.79088
G1 X83.799 Y148.66 E12.82149
G1 X83.063 Y148.106 E12.85213
G1 X82.378 Y147.491 E12.88275
G1 X81.749 Y146.819 E12.91336
G1 X81.181 Y146.094 E12.944
G1 X80.678 Y145.323 E12.97462
G1 X80.243 Y144.512 E13.00522
G1 X79.881 Y143.665 E13.03586
G1 X79.708 Y143.171 E13.05327
G1 X79.611 Y142.87 E13.06379
G1 X79.485 Y142.45 E13.07837
G1 X79.327 Y141.88 E13.09805
G1 X79.12 Y140.983 E13.12866
G1 X78.991 Y140.072 E13.15927
G1 X78.946 Y139.324 E13.18419
G1 X78.899 Y137.506 E13.24468
G1 X78.747 Y133.268 E13.38572
G1 X78.733 Y132.64 E13.40662
G1 X78.73 Y132.335 E13.41676
G1 X78.737 Y131.266 E13.45232
G1 X78.733 Y129.749 E13.50277
G1 X78.652 Y126.65 E13.60588
G1 X78.623 Y125.986 E13.62799
G1 X78.614 Y125.691 E13.6378
G1 X78.608 Y125.299 E13.65084
G1 X78.608 Y124.972 E13.66172
G1 X78.617 Y124.461 E13.67872
G1 X78.638 Y124.028 E13.69314
G1 X78.712 Y121.804 E13.76715
G1 X78.783 Y120.331 E13.8162
G1 X78.871 Y117.728 E13.90282
G1 X78.886 Y116.159 E13.95501
G1 X78.901 Y115.673 E13.97118
G1 X78.997 Y114.593 E14.00724
G1 X79.148 Y113.524 E14.04315
G1 X79.25 Y112.868 E14.06523
G1 X79.57 Y110.328 E14.15038
G1 X79.815 Y107.815 E14.23436
G1 X79.991 Y105.282 E14.31881
G1 X80.094 Y102.763 E14.40266
G1 X80.125 Y100.265 E14.48575
G1 X80.079 Y97.508 E14.57747
G1 X80.063 Y96.997 E14.59447
G1 X80.073 Y96.087 E14.62474
G1 X80.152 Y94.651 E14.67257
G1 X80.176 Y94.289 E14.68464
G1 X80.266 Y92.019 E14.7602
G1 X80.319 Y90.093 E14.82428
G1 X80.334 Y89.751 E14.83567
G1 X80.365 Y89.235 E14.85286
G1 X80.46 Y88.32 E14.88346
G1 X80.634 Y87.416 E14.91408
G1 X80.886 Y86.53 E14.94471
G1 X81.214 Y85.67 E14.97533
G1 X81.615 Y84.841 E15.00596
G1 X82.087 Y84.05 E15.03659
G1 X82.625 Y83.304 E15.06718
G1 X83.486 Y82.341 E15.11015
G0 F6000 X83.767 Y82.625
G1 F1200 X83.875 Y82.518 E15.11521
G1 X84.544 Y81.911 E15.14525
G1 X85.264 Y81.366 E15.17528
G1 X86.03 Y80.887 E15.20533
G1 X86.835 Y80.478 E15.23537
G1 X87.673 Y80.141 E15.26541
G1 X88.537 Y79.879 E15.29544
G1 X89.421 Y79.696 E15.32546
G1 X90.318 Y79.591 E15.3555
G1 X90.918 Y79.565 E15.37547
G1 X91.73 Y79.555 E15.40248
G1 X93.239 Y79.555 E15.45267
G1 X94.083 Y79.566 E15.48075
G1 X94.932 Y79.614 E15.50903
G1 X96.064 Y79.725 E15.54686
G1 X98.665 Y79.946 E15.63368
G1 X101.219 Y80.09 E15.71876
G1 X103.753 Y80.161 E15.80308
G1 X106.287 Y80.161 E15.88736
G1 X108.826 Y80.088 E15.97184
G1 X111.375 Y79.944 E16.05676
G1 X113.896 Y79.728 E16.14091
G1 X114.219 Y79.694 E16.15171
G1 X115.123 Y79.609 E16.18191
G1 X115.686 Y79.572 E16.20068
G1 X116.031 Y79.562 E16.21216
G1 X116.646 Y79.555 E16.23262
G1 X118.385 Y79.556 E16.29046
G1 X119.083 Y79.566 E16.31367
G1 X119.985 Y79.619 E16.34373
G1 X120.878 Y79.751 E16.37375
G1 X121.756 Y79.962 E16.40378
G1 X122.612 Y80.25 E16.43382
G1 X123.439 Y80.612 E16.46385
G1 X124.231 Y81.047 E16.4939
G1 X124.982 Y81.549 E16.52395
G1 X125.954 Y82.362 E16.56609
G1 X126.069 Y82.471 E16.57136
G1 X126.696 Y83.121 E16.6014
G1 X127.263 Y83.823 E16.63142
G1 X127.767 Y84.573 E16.66147
G1 X128.201 Y85.365 E16.69151
G1 X128.564 Y86.192 E16.72155
G1 X128.853 Y87.048 E16.7516
G1 X129.064 Y87.926 E16.78163
G1 X129.218 Y89.047 E16.81926
G1 X129.251 Y89.489 E16.83401
G1 X129.275 Y89.928 E16.84863
G1 X129.285 Y90.152 E16.85609
G1 X129.354 Y92.263 E16.92634
G1 X129.364 Y92.686 E16.94041
G1 X129.477 Y94.718 E17.0081
G1 X129.543 Y96.098 E17.05405
G1 X129.55 Y96.964 E17.08285
G1 X129.518 Y97.858 E17.11261
G1 X129.463 Y100.46 E17.19917
G1 X129.482 Y102.997 E17.28355
G1 X129.573 Y105.564 E17.36899
G1 X129.732 Y108.056 E17.45204
G1 X129.965 Y110.585 E17.53651
G1 X130.389 Y113.973 E17.65007
G1 X130.539 Y115.014 E17.68506
G1 X130.627 Y115.889 E17.71431
G1 X130.644 Y116.189 E17.7243
G1 X130.724 Y118.363 E17.79666
G1 X130.729 Y118.516 E17.80175
G1 X130.75 Y119.541 E17.83585
G1 X130.771 Y121.973 E17.91674
G1 X130.77 Y122.883 E17.947
G1 X130.803 Y125.485 E18.03355
G1 X130.909 Y128.032 E18.11834
G1 X130.938 Y128.51 E18.13427
G1 X130.994 Y129.792 E18.17695
G1 X131.033 Y131.089 E18.22011
G1 X131.046 Y131.819 E18.24439
G1 X131.041 Y132.377 E18.26295
G1 X130.993 Y133.678 E18.30625
G1 X130.968 Y134.471 E18.33264
G1 X130.953 Y134.778 E18.34286
G1 X130.854 Y136.361 E18.39562
G1 X130.777 Y137.96 E18.44886
G1 X130.766 Y138.081 E18.4529
G1 X130.706 Y139.345 E18.49499
G1 X130.623 Y140.244 E18.52502
G1 X130.538 Y140.765 E18.54258
G1 X130.494 Y140.997 E18.55043
G1 X130.43 Y141.309 E18.56102
G1 X130.208 Y142.308 E18.59506
G1 X129.973 Y143.18 E18.6251
G1 X129.662 Y144.028 E18.65514
G1 X129.278 Y144.845 E18.68516
G1 X128.822 Y145.625 E18.71522
G1 X128.299 Y146.361 E18.74525
G1 X127.714 Y147.048 E18.77526
G1 X127.069 Y147.681 E18.80532
G1 X126.372 Y148.255 E18.83535
G1 X125.425 Y148.886 E18.8732
G1 X125.233 Y148.999 E18.88061
G1 X124.435 Y149.422 E18.91065
G1 X124.013 Y149.61 E18.92601
G1 X123.906 Y149.655 E18.92987
G1 X123.059 Y149.968 E18.95991
G1 X122.188 Y150.205 E18.98993
G1 X121.409 Y150.348 E19.01627
G1 X121.208 Y150.377 E19.02303
G1 X120.309 Y150.467 E19.05308
G1 X119.751 Y150.482 E19.07164
G1 X119.243 Y150.473 E19.08854
G1 X118.567 Y150.443 E19.11105
G1 X116.977 Y150.353 E19.16401
G1 X115.395 Y150.306 E19.21666
G1 X114.822 Y150.282 E19.23573
G1 X114.519 Y150.265 E19.24582
G1 X113.709 Y150.206 E19.27284
G1 X112.294 Y150.085 E19.32007
G1 X109.797 Y149.941 E19.40326
G1 X107.227 Y149.867 E19.48877
G1 X104.693 Y149.865 E19.57305
G1 X102.162 Y149.935 E19.65727
